X:1
T:QA 1
L:1/8
M:4/4
V:1
V:2 clef=bass
K:C
[V:1] e2 dc BAGF | E2 GD D4 | CDEF G2 A_B | B8 :|
[V:2] [D,F,C]8 | [G,,F,B,]8 | [C,E,B,]8 | [A,,G,^C]8 :|